!!!COM: Bach, Johann Sebastian
!!!OPR: Joh. Seb. Bachs vierstimmige Choralgesänge
!!!XEN: Four-part Chorales
!!!OTL: Chorale 72. Heilig, Heilig!
!!!SCT: BWV 325
!!!SCA: Thematisch-systematisches Verzeichnis der musikalischen Werke Johann Sebastian Bach: Bach-Werke-Verzeichnis (Schmieder)
!!!YOR: Bach Gesellschaft Edition xxxix
!!!ENC: Steven Rasmussen
!!!CDT: 1685/3//-1750/7/28/
!!!OCY: Deutschland
!!!YEC: Copyright (c) 1994, 2000 Center for Computer Assisted Research in the Humanities
!!!YEM: Rights to all derivative editions reserved
!!!YEN: United States of America
**kern	**kern	**kern	**kern	**silbe
*I"[BASSO]	*I"[TENORE]	*I"[ALTO]	*I"[SOPRANO]	*I"[SOPRANO]
*clefF4	*clefGv2	*clefG2	*clefG2	*
*k[b-]	*k[b-]	*k[b-]	*k[b-]	*
*F:	*F:	*F:	*F:	*
*M4/4	*M4/4	*M4/4	*M4/4	*
=1-	=1-	=1-	=1-	=1-
8FFL	8AL	4f	4cc	Hei-
8GG	8B-J	.	.	.
8AA	[4c	[4f	4a	-lig,
8BB-J	.	.	.	.
2C	8cL]	8fL]	2g	Hei-
.	8GJ	16eL	.	.
.	.	16dJJ	.	.
.	8cL	4e	.	.
.	8B-J	.	.	.
=2	=2	=2	=2	=2
2FF;	2A;	2c;	2f;	-lig!
8EL	4.c	4g	4cc	.
8CJ	.	.	.	.
8GL	.	4g	4dd	.
8GGJ	8Bn	.	.	.
=3	=3	=3	=3	=3
2C;	2e;	2g;	2cc;	.
8DL	4A	4f	4ff	.
8CJ	.	.	.	.
8BBnL	[4d	4g	4ff	.
8GGJ	.	.	.	.
=4	=4	=4	=4	=4
8CL	8dL]	4g	4ee	.
8EJ	16cL	.	.	.
.	16BnJJ	.	.	.
8AL	[4c	8eL	4ee	.
8GJ	.	16fL	.	.
.	.	16gJJ	.	.
8FL	8cL]	[4a	4.dd	.
8DJ	16BL	.	.	.
.	16AJJ	.	.	.
8GL	4B	8aL]	.	.
8GGJ	.	16gL	8cc	.
.	.	16fJJ	.	.
=5	=5	=5	=5	=5
2C;	2G;	2e;	2cc;	.
4F	4A	4f	4cc	.
4BB-	8B-L	4f	4dd	.
.	8AJ	.	.	.
=6	=6	=6	=6	=6
4C	4G	4e	4cc	.
8DL	8FL	8dL	4b-	.
8EJ	8GJ	8cJ	.	.
2F;	2A;	2c;	2a;	.
=7	=7	=7	=7	=7
4r	4r	4r	4r	.
8CL	4c	8eL	4g	.
8EJ	.	8gJ	.	.
8FL	4c	4f	8aL	.
8GJ	.	.	8bnJ	.
8AL	4c	4e	4cc	.
8GJ	.	.	.	.
=8	=8	=8	=8	=8
8FL	[4d	8aL	4cc	.
8DJ	.	16gL	.	.
.	.	16fJJ	.	.
8GL	8dL]	4g	4bn	.
8GGJ	16eL	.	.	.
.	16fJJ	.	.	.
2C;	2e;	2g;	2cc;	.
=9	=9	=9	=9	=9
8FL	4f	4a	4cc	.
8E	.	.	.	.
8D	4f	[4a	4dd	.
8FJ	.	.	.	.
8GL	4d	8aL]	4b-	.
8F	.	16gL	.	.
.	.	16fJJ	.	.
8E	4c	[4g	4b-	.
8CJ	.	.	.	.
=10	=10	=10	=10	=10
8FL	4c	8gL]	4a	.
8EJ	.	16fL	.	.
.	.	16eJJ	.	.
8DL	8B-L	[4f	4b-	.
8BB-J	8dJ	.	.	.
4C	4.c	8fL]	4a	.
.	.	16eL	.	.
.	.	16dJJ	.	.
4CC	.	4e	4g	.
.	8B-	.	.	.
=11	=11	=11	=11	=11
2FF;	2A;	2c;	2f;	.
4r	4r	4r	4r	.
4F	[4c	4f	4a	.
=12	=12	=12	=12	=12
2C	4.c]	4f	2g	.
.	.	4e	.	.
.	8B-	.	.	.
4D;	4A;	4d;	4f;	.
4E	4G	4g	4cc	.
=13	=13	=13	=13	=13
4F	4d	4a	4cc	.
4G	4d	8gL	4bn	.
.	.	8fJ	.	.
4A;	4c;	4e;	4cc;	.
4A	4c	4f	4ff	.
=14	=14	=14	=14	=14
4Bn	4d	4g	4ff	.
4c	8dL	4g	4ee	.
.	[8cJ	.	.	.
4F	8cL]	4a	2dd	.
.	16BnL	.	.	.
.	16AJJ	.	.	.
4G	4B	8gL	.	.
.	.	8fJ	.	.
=15	=15	=15	=15	=15
2C;	2G;	2e;	2cc;	.
8FL	4A	4f	4cc	.
8EJ	.	.	.	.
8DL	4A	8fL	8ddL	.
8FJ	.	8eJ	8ccJ	.
=16	=16	=16	=16	=16
8GL	8B-L	4d	4b-	.
8FJ	8AJ	.	.	.
8EL	4G	4c	4b-	.
8CJ	.	.	.	.
8FL	8FL	8cL	4a	.
8E	8AJ	16dL	.	.
.	.	16eJJ	.	.
8D	[4d	[4f	8b-L	.
8CJ	.	.	8aJ	.
=17	=17	=17	=17	=17
8BB-L	8dL]	8fL]	2g	.
8GGJ	8B-J	16eL	.	.
.	.	16dJJ	.	.
4C	8GL	4e	.	.
.	16cL	.	.	.
.	16B-JJ	.	.	.
2FF;	2A;	2c;	2f;	.
==|!	==|!	==|!	==|!	==|!
*-	*-	*-	*-	*-
!!!RWG: Key is interpreted using the Humdrum key tool.
!!!URL-pdf: https://s9.imslp.org/files/imglnks/usimg/6/6b/IMSLP24489-PMLP09471-CCARH_Bach_Chorales.pdf#page=50 Musedata edition
!!!URL-pdf: https://s9.imslp.org/files/imglnks/usimg/7/7a/IMSLP04155-Bach_-_BGA_253-438.pdf#page=38 	Bach-Gesellschaft Ausgabe, Band 39 (pp.175-276) Leipzig: Breitkopf und Härtel, 1892. Plate B.W. XXXIX.
!!!END: 1994/06/07
!!!EMD: Converted from MuseData to Humdrum Dec 19, 2000, by Andreas Kornstaedt using muse2kern.
!!!EED: Craig Stuart Sapp
!!!EEV: 2024/03/31
!!!filter-keyboard: extract -i kern | satb2gs
!!!title: @{OTL} (@{SCT})
